src/lib/packages/icons/src/assets/filled/home-roof-star.svg

<svg width="24" height="24" viewBox="0 0 24 24" fill="none" xmlns="http://www.w3.org/2000/svg">
<path d="M21.477 9.08502L14.0649 2.98907C12.8679 2.00707 11.133 2.00607 9.93598 2.98907L2.52399 9.08404C2.20499 9.34704 2.15796 9.81907 2.42096 10.1401C2.68396 10.4611 3.15699 10.5051 3.47699 10.2431L4.49994 9.40106V18.0001C4.49994 20.2901 5.70994 21.5001 7.99994 21.5001H15.9999C18.2899 21.5001 19.4999 20.2901 19.4999 18.0001V9.40204L20.5229 10.2441C20.6629 10.3591 20.8319 10.4151 20.9999 10.4151C21.2159 10.4151 21.4309 10.322 21.5789 10.142C21.8429 9.82003 21.796 9.34802 21.477 9.08502ZM16.1059 12.9881L14.576 14.4681C14.464 14.5761 14.4129 14.7321 14.4399 14.8851L14.79 16.91C14.861 17.321 14.428 17.634 14.056 17.441L12.2199 16.483C12.0819 16.411 11.918 16.411 11.78 16.483L9.94489 17.44C9.57289 17.634 9.1389 17.32 9.2099 16.909L9.56 14.8851C9.586 14.7321 9.53489 14.5761 9.42389 14.4681L7.89399 12.9881C7.61299 12.7161 7.76795 12.2421 8.15595 12.1861L10.2729 11.881C10.4269 11.859 10.56 11.7631 10.629 11.6241L11.546 9.78106C11.732 9.40706 12.2689 9.40706 12.4549 9.78106L13.3719 11.6241C13.4409 11.7631 13.574 11.859 13.728 11.881L15.8449 12.1861C16.2329 12.2421 16.3869 12.7171 16.1059 12.9881Z" fill="currentColor"/>
</svg>

<svg xmlns="http://www.w3.org/2000/svg" width="24" height="24" fill="none"><path fill="currentColor" d="m21.477 9.085-7.412-6.096a3.26 3.26 0 0 0-4.129 0L2.524 9.084a.751.751 0 0 0 .953 1.16L4.5 9.4V18c0 2.29 1.21 3.5 3.5 3.5h8c2.29 0 3.5-1.21 3.5-3.5V9.401l1.023.842a.749.749 0 0 0 1.056-.102.751.751 0 0 0-.102-1.057Zm-5.371 3.903-1.53 1.48a.466.466 0 0 0-.136.417l.35 2.025a.506.506 0 0 1-.734.531l-1.836-.958a.475.475 0 0 0-.44 0l-1.835.957a.506.506 0 0 1-.735-.531l.35-2.024a.472.472 0 0 0-.136-.417l-1.53-1.48a.47.47 0 0 1 .262-.802l2.117-.305a.472.472 0 0 0 .356-.257l.917-1.843a.508.508 0 0 1 .909 0l.917 1.843a.472.472 0 0 0 .356.257l2.117.305a.47.47 0 0 1 .26.802Z"/></svg>
